icons/svg/pin-off.svg

<svg width="24" height="24" viewBox="0 0 24 24" fill="none" xmlns="http://www.w3.org/2000/svg">
<path d="M7.77043 16.2329L3.75002 20.2533M20.7184 21.7816L14.4595 15.5226M2.21844 3.2816L8.48073 9.54388M14.4595 15.5226C14.3386 15.7604 14.2407 16.0118 14.1685 16.2739L13.4803 18.7734C13.1749 19.8822 11.7867 20.2491 10.9734 19.4358L4.56753 13.0299C3.75428 12.2167 4.12113 10.8284 5.22997 10.5231L7.72952 9.83483C7.99158 9.76266 8.24298 9.66478 8.48073 9.54388M14.4595 15.5226L8.48073 9.54388M10.2448 7.76834C10.3032 7.65156 10.3562 7.53137 10.4033 7.4081L11.694 4.0358C12.2118 2.68276 13.9517 2.31204 14.9761 3.33645L20.6669 9.0273C21.6913 10.0517 21.3206 11.7916 19.9676 12.3094L16.5953 13.6C16.472 13.6472 16.3518 13.7002 16.235 13.7586" stroke="currentColor" stroke-width="1.5" stroke-linecap="round" stroke-linejoin="round"/>
</svg>

<svg xmlns="http://www.w3.org/2000/svg" width="24" height="24" fill="none" viewBox="0 0 24 24"><path stroke="currentColor" stroke-linecap="round" stroke-linejoin="round" stroke-width="1.5" d="m7.77 16.233-4.02 4.02m16.968 1.529-6.258-6.26M2.217 3.283 8.48 9.545m5.979 5.979q-.183.357-.292.75l-.688 2.5a1.5 1.5 0 0 1-2.507.663L4.568 13.03a1.5 1.5 0 0 1 .662-2.507l2.5-.688a4 4 0 0 0 .75-.291m5.98 5.979-5.98-5.98m1.765-1.775q.087-.175.158-.36l1.291-3.372a2 2 0 0 1 3.282-.7l5.69 5.691a2 2 0 0 1-.698 3.282L16.595 13.6q-.184.07-.36.159"/></svg>
